src/shared/assets/icons/home-category/ic-art.svg

<svg width="100%" height="100%" viewBox="0 0 120 120" fill="none" xmlns="http://www.w3.org/2000/svg">
<path d="M102.965 28.6388L93.3205 19.7308C88.7781 15.5351 81.6944 15.8162 77.4987 20.3586L64.5737 34.3519C60.378 38.8943 60.6591 45.978 65.2016 50.1737L74.8458 59.0817C79.3883 63.2774 86.4719 62.9963 90.6676 58.4538L103.593 44.4606C107.788 39.9182 107.507 32.8345 102.965 28.6388Z" fill="url(#paint0_linear_68_50344)"/>
<path d="M69.0279 29.5295C71.2464 27.1276 74.9924 26.9786 77.3943 29.1972L94.79 45.2653C97.1917 47.4838 97.3409 51.2298 95.1226 53.6317L61.1939 90.3633C59.7379 91.9396 57.8811 93.0908 55.8217 93.6933L45.7168 96.6496L30.0605 82.1886L32.2067 71.8811C32.6443 69.7801 33.6443 67.8375 35.1005 66.2611L69.0279 29.5295Z" fill="#BFB5FF" fill-opacity="0.6"/>
<mask id="mask0_68_50344" style="mask-type:luminance" maskUnits="userSpaceOnUse" x="30" y="27" width="67" height="70">
<path d="M69.0279 29.5295C71.2464 27.1276 74.9924 26.9786 77.3943 29.1972L94.79 45.2653C97.1917 47.4838 97.3409 51.2298 95.1226 53.6317L61.1939 90.3633C59.7379 91.9396 57.8811 93.0908 55.8217 93.6933L45.7168 96.6496L30.0605 82.1886L32.2067 71.8811C32.6443 69.7801 33.6443 67.8375 35.1005 66.2611L69.0279 29.5295Z" fill="white"/>
</mask>
<g mask="url(#mask0_68_50344)">
<path d="M45.7166 96.6496L45.3608 97.0345L45.5789 97.2359L45.8639 97.1528L45.7166 96.6496ZM30.0604 82.1886L29.5469 82.0816L29.4863 82.3724L29.7045 82.5739L30.0604 82.1886ZM69.0277 29.5295L69.413 29.8854C71.435 27.6963 74.8492 27.5606 77.0382 29.5825L77.3941 29.1972L77.75 28.8119C75.1354 26.3968 71.0575 26.5591 68.6424 29.1736L69.0277 29.5295ZM77.3941 29.1972L77.0382 29.5825L94.4341 45.6506L94.7898 45.2653L95.1455 44.88L77.75 28.8119L77.3941 29.1972ZM94.7898 45.2653L94.4341 45.6506C96.6232 47.6726 96.7587 51.0868 94.7367 53.2758L95.1224 53.6317L95.5072 53.9875C97.9227 51.3729 97.7598 47.2951 95.1455 44.88L94.7898 45.2653ZM95.1224 53.6317L94.7367 53.2758L60.8085 90.0076L61.1938 90.3634L61.579 90.7191L95.5072 53.9875L95.1224 53.6317ZM61.1938 90.3634L60.8085 90.0076C59.417 91.5136 57.6424 92.6134 55.6742 93.1894L55.8215 93.6934L55.9688 94.1965C58.1194 93.5674 60.0586 92.3648 61.579 90.7191L61.1938 90.3634ZM55.8215 93.6934L55.6742 93.1894L45.5693 96.1465L45.7166 96.6496L45.8639 97.1528L55.9688 94.1965L55.8215 93.6934ZM45.7166 96.6496L46.0725 96.2639L30.4162 81.8033L30.0604 82.1886L29.7045 82.5739L45.3608 97.0345L45.7166 96.6496ZM30.0604 82.1886L30.5739 82.2955L32.7201 71.988L32.2066 71.8811L31.6931 71.7742L29.5469 82.0816L30.0604 82.1886ZM32.2066 71.8811L32.7201 71.988C33.1382 69.9801 34.094 68.1236 35.4856 66.617L35.1003 66.2611L34.715 65.9053C33.1943 67.5516 32.15 69.5802 31.6931 71.7742L32.2066 71.8811ZM35.1003 66.2611L35.4856 66.617L69.413 29.8854L69.0277 29.5295L68.6424 29.1736L34.715 65.9053L35.1003 66.2611Z" fill="url(#paint1_linear_68_50344)"/>
</g>
<foreignObject x="44.4227" y="8.61015" width="71.2875" height="70.2914"><div xmlns="http://www.w3.org/1999/xhtml" style="backdrop-filter:blur(13.06px);clip-path:url(#bgblur_0_68_50344_clip_path);height:100%;width:100%"></div></foreignObject><path data-figma-bg-blur-radius="26.1252" d="M75.4093 35.7098L88.4562 47.7608C89.572 48.7914 89.6411 50.5315 88.6104 51.6473C87.5798 52.7632 85.8397 52.8322 84.7239 51.8016L71.6769 39.7506C70.5611 38.72 70.4921 36.9799 71.5227 35.8641C72.5534 34.7483 74.2934 34.6792 75.4093 35.7098Z" fill="url(#paint2_linear_68_50344)" fill-opacity="0.9" stroke="url(#paint3_linear_68_50344)" stroke-width="0.489516"/>
<path d="M45.7169 96.6496L30.0606 82.1885L26.8436 97.6362C26.388 99.8236 28.428 101.708 30.5728 101.081L45.7169 96.6496Z" fill="url(#paint4_linear_68_50344)"/>
<defs>
<clipPath id="bgblur_0_68_50344_clip_path" transform="translate(-44.4227 -8.61015)"><path d="M75.4093 35.7098L88.4562 47.7608C89.572 48.7914 89.6411 50.5315 88.6104 51.6473C87.5798 52.7632 85.8397 52.8322 84.7239 51.8016L71.6769 39.7506C70.5611 38.72 70.4921 36.9799 71.5227 35.8641C72.5534 34.7483 74.2934 34.6792 75.4093 35.7098Z"/>
</clipPath><linearGradient id="paint0_linear_68_50344" x1="86.4719" y1="25.7458" x2="101.463" y2="50.8449" gradientUnits="userSpaceOnUse">
<stop stop-color="#917FFB"/>
<stop offset="1" stop-color="#3F2DAF"/>
</linearGradient>
<linearGradient id="paint1_linear_68_50344" x1="23.7795" y1="28.8243" x2="71.9517" y2="93.7602" gradientUnits="userSpaceOnUse">
<stop stop-color="white"/>
<stop offset="0.765625" stop-color="white" stop-opacity="0"/>
</linearGradient>
<linearGradient id="paint2_linear_68_50344" x1="70.2988" y1="35.4673" x2="95.9984" y2="58.0201" gradientUnits="userSpaceOnUse">
<stop stop-color="#FCFDFE"/>
<stop offset="1" stop-color="#FCFDFE" stop-opacity="0"/>
</linearGradient>
<linearGradient id="paint3_linear_68_50344" x1="70.2988" y1="36.5163" x2="77.5518" y2="45.7322" gradientUnits="userSpaceOnUse">
<stop stop-color="white"/>
<stop offset="1" stop-color="white" stop-opacity="0"/>
</linearGradient>
<linearGradient id="paint4_linear_68_50344" x1="32.3553" y1="88.7647" x2="38.2898" y2="104.079" gradientUnits="userSpaceOnUse">
<stop stop-color="#917FFB"/>
<stop offset="1" stop-color="#3F2DAF"/>
</linearGradient>
</defs>
</svg>

<svg xmlns="http://www.w3.org/2000/svg" fill="none" viewBox="0 0 120 120"><path fill="url(#a)" d="M102.965 28.639 93.32 19.73c-4.542-4.196-11.626-3.915-15.821.628L64.574 34.352c-4.196 4.542-3.915 11.626.628 15.822l9.644 8.908c4.542 4.195 11.626 3.914 15.822-.628l12.925-13.993c4.195-4.543 3.914-11.626-.628-15.822"/><path fill="#bfb5ff" fill-opacity=".6" d="M69.028 29.53a5.92 5.92 0 0 1 8.366-.333L94.79 45.265a5.92 5.92 0 0 1 .333 8.367l-33.93 36.731a11.84 11.84 0 0 1-5.371 3.33L45.717 96.65 30.06 82.189l2.146-10.308a11.84 11.84 0 0 1 2.893-5.62z"/><mask id="b" width="67" height="70" x="30" y="27" maskUnits="userSpaceOnUse" style="mask-type:luminance"><path fill="#fff" d="M69.028 29.53a5.92 5.92 0 0 1 8.366-.333L94.79 45.265a5.92 5.92 0 0 1 .333 8.367l-33.93 36.731a11.84 11.84 0 0 1-5.371 3.33L45.717 96.65 30.06 82.189l2.146-10.308a11.84 11.84 0 0 1 2.893-5.62z"/></mask><g mask="url(#b)"><path fill="url(#c)" d="m45.717 96.65-.356.384.218.202.285-.083zM30.06 82.189l-.513-.107-.06.29.218.202zm38.968-52.66.385.356a5.396 5.396 0 0 1 7.625-.303l.356-.385.356-.385a6.445 6.445 0 0 0-9.108.362zm8.366-.332-.356.386L94.434 45.65l.356-.386.355-.385L77.75 28.812zM94.79 45.265l-.356.386a5.396 5.396 0 0 1 .303 7.625l.385.356.385.355a6.445 6.445 0 0 0-.362-9.107zm.332 8.367-.385-.356-33.928 36.732.385.355.385.356 33.928-36.731zM61.194 90.363l-.386-.355a11.3 11.3 0 0 1-5.134 3.181l.148.504.147.504c2.15-.63 4.09-1.832 5.61-3.478zm-5.373 3.33-.147-.504-10.105 2.958.148.503.147.503 10.105-2.957zM45.718 96.65l.355-.386-15.656-14.46-.356.385-.355.385 15.656 14.46zM30.06 82.189l.514.107 2.146-10.308-.513-.107-.514-.107-2.146 10.308zm2.147-10.308.513.107a11.3 11.3 0 0 1 2.766-5.371l-.386-.356-.385-.356a12.36 12.36 0 0 0-3.022 5.87zm2.893-5.62.386.356 33.927-36.732-.385-.356-.386-.355-33.927 36.731z"/></g><foreignObject width="71.287" height="70.291" x="44.423" y="8.61"><div xmlns="http://www.w3.org/1999/xhtml" style="backdrop-filter:blur(13.06px);clip-path:url(#d);height:100%;width:100%"/></foreignObject><path fill="url(#e)" fill-opacity=".9" stroke="url(#f)" stroke-width=".49" d="m75.41 35.71 13.046 12.05a2.75 2.75 0 1 1-3.732 4.042L71.677 39.75a2.75 2.75 0 0 1 3.732-4.041Z" data-figma-bg-blur-radius="26.125"/><path fill="url(#g)" d="M45.717 96.65 30.06 82.189l-3.217 15.447c-.456 2.188 1.584 4.072 3.729 3.445z"/><defs><linearGradient id="a" x1="86.472" x2="101.463" y1="25.746" y2="50.845" gradientUnits="userSpaceOnUse"><stop stop-color="#917ffb"/><stop offset="1" stop-color="#3f2daf"/></linearGradient><linearGradient id="c" x1="23.779" x2="71.952" y1="28.824" y2="93.76" gradientUnits="userSpaceOnUse"><stop stop-color="#fff"/><stop offset=".766" stop-color="#fff" stop-opacity="0"/></linearGradient><linearGradient id="e" x1="70.299" x2="95.998" y1="35.467" y2="58.02" gradientUnits="userSpaceOnUse"><stop stop-color="#fcfdfe"/><stop offset="1" stop-color="#fcfdfe" stop-opacity="0"/></linearGradient><linearGradient id="f" x1="70.299" x2="77.552" y1="36.516" y2="45.732" gradientUnits="userSpaceOnUse"><stop stop-color="#fff"/><stop offset="1" stop-color="#fff" stop-opacity="0"/></linearGradient><linearGradient id="g" x1="32.355" x2="38.29" y1="88.765" y2="104.079" gradientUnits="userSpaceOnUse"><stop stop-color="#917ffb"/><stop offset="1" stop-color="#3f2daf"/></linearGradient><clipPath id="d" transform="translate(-44.423 -8.61)"><path d="m75.41 35.71 13.046 12.05a2.75 2.75 0 1 1-3.732 4.042L71.677 39.75a2.75 2.75 0 0 1 3.732-4.041"/></clipPath></defs></svg>
